icons/bhi_candidate-circle.svg

<svg xmlns="http://www.w3.org/2000/svg" viewBox="0 0 512 512" enable-background="new 0 0 512 512"><path fill="#010101" d="M256 512c-140.8 0-256-115.2-256-256s115.2-256 256-256 256 115.2 256 256-115.2 256-256 256zm0-473.6c-121.6 0-217.6 98.1-217.6 217.6s98.1 217.6 217.6 217.6 217.6-98.1 217.6-217.6-98.1-217.6-217.6-217.6z"/><g fill="#010101"><path d="M226.3 260.5l-72.5 36.3c-14.9 10.7-23.5 32-17.1 46.9l2.1 8.5h93.9l-6.4-91.7zM286 261.5l72.5 36.3c14.9 10.7 23.5 32 17.1 46.9l-2.1 8.5h-93.9l6.4-91.7zM262.5 264.5v98.2l-6.4 6.4-8.5-6.4v-98.2z"/></g><path fill="#010101" d="M256.3 183.5h61.9v-10.7c0-34.1-27.7-61.9-61.9-61.9s-61.9 27.7-61.9 61.9v10.7h61.9zM202.9 196.3c2.1 27.7 25.6 49.1 53.3 49.1s51.2-21.3 53.3-49.1h-106.6z"/></svg>

<?xml version="1.0" encoding="utf-8"?>
<!-- Generator: Adobe Illustrator 19.2.0, SVG Export Plug-In . SVG Version: 6.00 Build 0)  -->
<svg version="1.1" id="Layer_1" xmlns="http://www.w3.org/2000/svg" xmlns:xlink="http://www.w3.org/1999/xlink" x="0px" y="0px"
	 viewBox="0 0 512 512" enable-background="new 0 0 512 512" xml:space="preserve">
<g>
	<path fill="#010101" d="M256,512C115.2,512,0,396.8,0,256S115.2,0,256,0s256,115.2,256,256S396.8,512,256,512z M256,38.4
		C134.4,38.4,38.4,136.5,38.4,256S136.5,473.6,256,473.6S473.6,375.5,473.6,256S375.5,38.4,256,38.4z"/>
</g>
<g>
	<path fill="#010101" d="M226.3,260.5l-72.5,36.3c-14.9,10.7-23.5,32-17.1,46.9l2.1,8.5h93.9L226.3,260.5z"/>
	<path fill="#010101" d="M286,261.5l72.5,36.3c14.9,10.7,23.5,32,17.1,46.9l-2.1,8.5h-93.9L286,261.5z"/>
	<polygon fill="#010101" points="262.5,264.5 262.5,362.7 256.1,369.1 247.6,362.7 247.6,264.5 	"/>
</g>
<path fill="#010101" d="M256.3,183.5h61.9v-10.7c0-34.1-27.7-61.9-61.9-61.9s-61.9,27.7-61.9,61.9c0,8.5,0,10.7,0,10.7H256.3z"/>
<path fill="#010101" d="M202.9,196.3c2.1,27.7,25.6,49.1,53.3,49.1s51.2-21.3,53.3-49.1H202.9z"/>
</svg>
